X:1
T:Danny Boy (Transcribed Tenor Sax Blues)
C:Traditional Irish Air
Z:All Rights Reserved
L:1/8
M:4/4
K:G
V:1 treble nm="Melody" snm="Melody"
%%MIDI channel 4
%%MIDI program 74
V:1
"D7" z2 FD GD- (3DAD |"G " B6- (3BA_B |"G7" B2- (3BeB d2- (3dBG |"C " A/B/A/G/ E6 | %4
"D7"z2(3zFA B2- (3BeB |"G " dd-"Emin" d4 e/g/e/g/ |"G " d2- (3dBA"Emin7" G2 B/d/B/d/ |"D " A8 | %8
"D7" z2 FD GD- (3DAD |"G " BB- B4(3zA_B |"G7" B2- (3BeB d2- (3dBG |"C " A/B/A/G/ E6 | %12
"Amin"z2(3zFD"G " GD- (3DAD |"Cmaj7""E7" B6(3zcd |"Emin" B2- (3BAB"D7" G2 (3G/A/B/D/A/ | %15
"G " G/A/G-"C " G6 |"G " z2 dG"D7" e2 fd |"G " g6"Gmaj7"(3zff | f2- (3fec"Emin" d2 e/g/e/g/ | %19
"G " d2- (3dBA G/A/G- G2 |"Amin" z2 dG"D7" e2 fd |"G " g6"Gmaj7"(3zff | f2- fe"G " d2 B/d/B/d/ | %23
"D ""A7" A8 |"D7" z2 d2 d2(3zdd |"G " b6(3zaa |"Amin7" a2- ag"C " e2- e<g | %27
"G " d2- (3dBA G/A/G- G2 |"Emin7" z2 GD AD- (3D_BD |"G " B2- (3Bde"Emin7" d2 (3BAG | %30
"Amin" A2- AG"C " E2- (3EFD |"G ""C " G8 |"G " z2 d2"D7" e2 f2 |"G " g6"Gmaj7" ff | %34
 f2- (3fec"Emin" d2 e/g/e/g/ |"G " d2 BA G/A/G- G2 |"D7" z2 d2 e2 f/d/^c/d/ |"G " g6"Gmaj7" ff | %38
 f2- fe"Emin7" d2 B/G/F/G/ |"D " A8 |"D7" z2 d2 d2 d2 |"G " b6 z a |"C " a2 g2 e2 g2 | %43
"G " d2 B2 G/A/G- G2 |"Cmin" z2 FD GD AD |"G " B2- (3Bee"Emin7" d2 (3BAG | %46
"D " A2- (3AGF"D7" E2 F2 |"G " G2 dB"Cmaj7" dB dB |"G " (3d_dc B6- | B8 |] %50

